X:1
T: Miss Gibson's Eight Bar Jig
C: Adapted from the six bar jig by Bruce Shawyer
R:Jig
Q:180
K:A
M:6/8
L:1/16
E2|C2D2E2 A4E2|F2G2A2 E2C2A,2|C2D2E2 A4C2|C2B,2B,2 B,4D2|C2D2E2 A4f2|e2c2A2 B2G2E2|e2c2A2 B2G2E2|F2A2A2 A4e2|
c2A2c2 e2f2g2|a2e2f2 e2c2A2|c2A2c2 e2c2A2|G2B2B2 B4d2|c2A2c2 e2a2f2|e2c2A2 B2G2E2|e2c2A2 B2G2E2|F2A2A2 A4F2|
C2D2E2 A4E2|F2G2A2 E2C2A,2|C2D2E2 A4C2|C2B,2B,2 B,4D2|C2D2E2 A4f2|e2c2A2 B2G2E2|e2c2A2 B2G2E2|F2A2A2 A4e2|
c2A2c2 e2f2g2|a2e2f2 e2c2A2|c2A2c2 e2c2A2|G2B2B2 B4d2|c2A2c2 e2a2f2|e2c2A2 B2G2E2|e2c2A2 B2G2E2|F2A2A2 A4||
